images/assets/hi.svg

<svg width="40" height="40" viewBox="0 0 40 40" fill="none" xmlns="http://www.w3.org/2000/svg">
<rect width="40" height="40" rx="8" fill="#1A1A1A"/>
<path fill-rule="evenodd" clip-rule="evenodd" d="M13.7129 15H8V26H13.7129V22.0112H17.2871V26H23V15H17.2871V18.7894H13.7129V15ZM32 15H26V26H32V15Z" fill="white"/>
</svg>

<svg width="40" height="40" fill="none" xmlns="http://www.w3.org/2000/svg"><rect width="40" height="40" rx="8" fill="#1A1A1A"/><path fill-rule="evenodd" clip-rule="evenodd" d="M13.713 15H8v11h5.713v-3.989h3.574V26H23V15h-5.713v3.79h-3.574V15ZM32 15h-6v11h6V15Z" fill="#fff"/></svg>
